Adwaita++-Dark/actions/16/browser-download.svg

<svg height="16" width="16" xmlns="http://www.w3.org/2000/svg">
  <path d="m10 0v6h2.5l-4.5 7-4.5-7h2.5v-6zm-8 14h12v2h-12z" fill="#e6ddff"/>
</svg>

<svg xmlns="http://www.w3.org/2000/svg" width="16" height="16" version="1.1">
 <path style="fill:#E6DDFF" d="M 10,0 V 6 H 12.5 L 8,13 3.5,6 H 6 V 0 Z M 2,14 H 14 V 16 H 2 Z"/>
</svg>
